X: 27
T:Balance the Straw - Field Town
S:OY(AB)4
N:Tune as played for Grand Union Morris
N:www.grandunionmorris.co.uk
M:6/8
L:1/8
Q:100
K:G
"A"D | G2 B BAB | c2 A ABc | dBd cAc | B2 G G2 :||
"B"B/2c/2 | d2 d d2 B | c2 B B2 A | e2 d dAB | c2 B A2 D | G2 B BAB | c
